assets/icons/add-24.svg

<svg width="24" height="24" viewBox="0 0 24 24" fill="none" xmlns="http://www.w3.org/2000/svg">
<path d="M18 12C18 12.5523 17.5523 13 17 13H13V17C13 17.5523 12.5523 18 12 18C11.4477 18 11 17.5523 11 17V13H7C6.44771 13 6 12.5523 6 12C6 11.4477 6.44771 11 7 11H11V7C11 6.44772 11.4477 6 12 6C12.5523 6 13 6.44772 13 7V11H17C17.5523 11 18 11.4477 18 12Z" fill="#F2F2F2"/>
<path fill-rule="evenodd" clip-rule="evenodd" d="M1 12C1 5.92487 5.92487 1 12 1C18.0751 1 23 5.92487 23 12C23 18.0751 18.0751 23 12 23C5.92487 23 1 18.0751 1 12ZM12 3C7.02944 3 3 7.02944 3 12C3 16.9706 7.02944 21 12 21C16.9706 21 21 16.9706 21 12C21 7.02944 16.9706 3 12 3Z" fill="#F2F2F2"/>
</svg>

<svg xmlns="http://www.w3.org/2000/svg" width="24" height="24" viewBox="0 0 24 24"><path d="M18 12a1 1 0 01-1 1h-4v4a1 1 0 11-2 0v-4H7a1 1 0 110-2h4V7a1 1 0 112 0v4h4a1 1 0 011 1z"/><path fill-rule="evenodd" d="M1 12C1 5.925 5.925 1 12 1s11 4.925 11 11-4.925 11-11 11S1 18.075 1 12zm11-9a9 9 0 100 18 9 9 0 000-18z"/></svg>
